X: 9
T: Missa J'ay pris amours / Credo
N: Derived from Ort1002c.b-Missa_Jay_pris_amours-Credo-second_setting.krn
C: Marbrianus de Orto
%%abc-version 2.0
%%abcx-abcm2ps-target-version 5.9.1 (29 Sep 2008)
%%abc-creator hum2abc beta
%%abcx-conversion-date 2019/02/17 07:28:36
%%abc-edited-by Jesse Rodin
%%abc-edited-by Jesse Rodin 8/11/2013
%%abcx-initial-encoding-date 2013/08/11/
%%humdrum-veritas 2309797494
%%humdrum-veritas-data 2681115424
%%linebreak <none>
%%barnumbers 0
L: 1/4
M: 3/1
Q: 1/2=120
%%staves [1 2 3 4]
V: 1 clef=treble
V: 2 clef=treble-8
V: 3 clef=treble-8
V: 4 clef=bass
K: C
[V:1] A12 | 
[V:2] e4f4e4 | 
[V:3] A4D4A4 | 
[V:4] z12 | 
[V:1] c4c8 | 
[V:2] e4c3de4 | 
[V:3] A2A2A6c2 | 
[V:4] z12 | 
[V:1] B12 | 
[V:2] d4e4d4 | 
[V:3] G4z4B4 | 
[V:4] z4E,4G,4 | 
[V:1] E12 | 
[V:2] z4z4c2c2 | 
[V:3] c2c2c2B2A2c2 | 
[V:4] A,4A,2G,2A,4 | 
[V:1] z4G4A4 | 
[V:2] d2d2e4d2c2 | 
[V:3] B4z2E2F2A2- | 
[V:4] G,4E,4z4 | 
[V:1] B4c4B2G2 | 
[V:2] B4A4z2e2 | 
[V:3] A2G2F2c2d2B2 | 
[V:4] E,2E,2A,2A,2G,4 | 
[V:1] A4G4z4 | 
[V:2] f4e4c4 | 
[V:3] c8A4 | 
[V:4] F,2F,2C,4F,4 | 
[V:1] B4c4d4 | 
[V:2] d4e4d2d2- | 
[V:3] G4z4z4 | 
[V:4] z4C,4G,2B,2 | 
[V:1] e4d2B2c2A2- | 
[V:2] d2c2d2g2e4 | 
[V:3] z4G2d2c3d | 
[V:4] A,4z2G,2A,4- | 
[V:1] A2B2A2GFG2FG | 
[V:2] c2g2f4e4 | 
[V:3] e4c2d2B4 | 
[V:4] A,2E,2F,2D,2E,4 | 
[V:1] A12 | 
[V:2] c2c2d4e4 | 
[V:3] A4z4c2c2 | 
[V:4] z2A,2D,4A,4 | 
[V:1] z12 | 
[V:2] d2c2B4z4 | 
[V:3] d2e2d3cB4 | 
[V:4] z4G,4D3C | 
[V:1] A8c4 | 
[V:2] e4f3e/d/e2f2 | 
[V:3] c2c2d3cA4 | 
[V:4] A,4D,4z2A,2 | 
[V:1] B12 | 
[V:2] g4g3gg2g2 | 
[V:3] G4G4G2G2 | 
[V:4] D2D2E2D4B,2 | 
[V:1] G4A8 | 
[V:2] e4f4e2d2- | 
[V:3] C4c4z4 | 
[V:4] C4F,3E,C,2D,2 | 
[V:1] G12 | 
[V:2] dcc4B2c2g2 | 
[V:3] z4d4c2e2 | 
[V:4] E,2C,2G,4C,2C2 | 
[V:1] c8B4 | 
[V:2] a6f2g4 | 
[V:3] e2f2e2c2d4 | 
[V:4] A,2F,2A,4G,4 | 
[V:1] c12 | 
[V:2] e3fg4e4 | 
[V:3] c8z4 | 
[V:4] C,4z4C,2C,2 | 
[V:1] z12 | 
[V:2] z2B4B2B4 | 
[V:3] E2E2G4E4 | 
[V:4] G,4E,4G,4 | 
[V:1] c12 | 
[V:2] e4f4e4 | 
[V:3] z2A3Bc3BG2- | 
[V:4] A,3G,F,3E,/D,/C,4 | 
[V:1] B4G8 | 
[V:2] e2e2e2d4^c2 | 
[V:3] G2G2c2B2cBAG | 
[V:4] E,4z4E,4 | 
[V:1] A8G4 | 
[V:2] d4c2d2e4 | 
[V:3] F2D2z4BBBB | 
[V:4] D,4F,2F,2E,4 | 
[V:1] E12 | 
[V:2] z2c2A2G2c2B2 | 
[V:3] c4z2c2A2G2 | 
[V:4] C,2C,2C,4z2E,2 | 
[V:1] A12 | 
[V:2] A4d2c2d4 | 
[V:3] c2c2A4z4 | 
[V:4] F,2F,F,F,2F,2F,2F,2 | 
[V:1] G4A4B4 | 
[V:2] e4f4g2G2 | 
[V:3] z4d2c2d4 | 
[V:4] E,2E,2D,2A,2G,2G,2 | 
[V:1] ^G12 | 
[V:2] B2c2B2BBB2c2 | 
[V:3] e4E4E2E2 | 
[V:4] E,4z4z4 | 
[V:1] z4z4G4- | 
[V:2] B2G2z4z4 | 
[V:3] E4C2z2BBB2 | 
[V:4] G,3G,G,2A,2G,2E,2 | 
[V:1] G4A6G2 | 
[V:2] z4c2c2d2e2 | 
[V:3] c2B2A4z4 | 
[V:4] z2E,2F,2F,2F,2E,2 | 
[V:1] F2E2E8 | 
[V:2] A2B4c3BB2- | 
[V:3] z12 | 
[V:4] D,2G,4A,3G,E,2 | 
[V:1] D4E8 | 
[V:2] B2A2^G3^FA4 | 
[V:3] z4B4c4 | 
[V:4] F,4E,4z4 | 
[V:1] z4B4B4 | 
[V:2] d4d2g3gg2- | 
[V:3] B4G3AB2G2 | 
[V:4] G,3A,B,2E,2E,3F, | 
[V:1] B4c4B2A2 | 
[V:2] g2g4e4d2 | 
[V:3] d4c3B/A/G2A2 | 
[V:4] G,4C,3D,E,2F,2 | 
[V:1] G4A4B4 | 
[V:2] e12 | 
[V:3] B4A4E4 | 
[V:4] E,4z4z4 | 
[V:1] G6^FEF4 | 
[V:2] z12 | 
[V:3] z4B4c4 | 
[V:4] E,3F,G,4A,4 | 
[V:1] G8z4 | 
[V:2] B4c4d4 | 
[V:3] d4e2c4B2 | 
[V:4] G,3F,E,4D,4 | 
[V:1] E4F4G2G2 | 
[V:2] e4d3cB4 | 
[V:3] c4A4E4 | 
[V:4] C,4D,4z4 | 
[V:1] A2A2E4z4 | 
[V:2] A4B2c2d4 | 
[V:3] F4G2A2G2F2 | 
[V:4] z12 | 
[V:1] G4A4G4 | 
[V:2] e4d3cB4 | 
[V:3] E4F2D2E3F | 
[V:4] z12 | 
[V:1] c4c2B2A4 | 
[V:2] e4e2d4d2 | 
[V:3] G2A2G4z2A2 | 
[V:4] C,3D,E,F,G,2F,4 | 
[V:1] G4c4B2e2- | 
[V:2] e4c2g4e2 | 
[V:3] B2c2A2e2-edc2- | 
[V:4] E,4F,2C,2E,4 | 
[V:1] e2d2B4c4 | 
[V:2] g3fd2g2e4 | 
[V:3] c2B4e3dc2 | 
[V:4] C,2G,4E,2A,4 | 
[V:1] A6^G^FG4 | 
[V:2] f3ec2d2e4- | 
[V:3] d3cA4B4 | 
[V:4] z2D,2F,4E,4 | 
[V:1] A12 ||  
[V:2] e12 ||  
[V:3] A12 ||  
[V:4] A,12 ||  
[V:1]  [K:C] [K:clef=treble][M:2/1]z8 | 
[V:2]  [K:C] [K:clef=treble-8][M:2/1]A4A2c2- | 
[V:3]  [K:C] [K:clef=treble-8][M:2/1]z8 | 
[V:4]  [K:C] [K:clef=bass][M:2/1]A,8 | 
[V:1] z8 | 
[V:2] cde2f2e2- | 
[V:3] z8 | 
[V:4] A,4A,4 | 
[V:1] z8 | 
[V:2] edc2B4 | 
[V:3] z8 | 
[V:4] G,8 | 
[V:1] E4E2F2 | 
[V:2] A4z4 | 
[V:3] A4c2c2 | 
[V:4] A,8 | 
[V:1] G3AB2c2- | 
[V:2] e3fg2e2- | 
[V:3] B2B2G4 | 
[V:4] E,8 | 
[V:1] c2BAB4 | 
[V:2] e2f2gfed | 
[V:3] z2A4^G2 | 
[V:4] z8 | 
[V:1] A3GE4 | 
[V:2] c4z2A2- | 
[V:3] A4z2c2- | 
[V:4] A,8 | 
[V:1] z4c4- | 
[V:2] ABcde2f2 | 
[V:3] cde4dc | 
[V:4] A,4A,4 | 
[V:1] c2BAB4 | 
[V:2] g4g4 | 
[V:3] d4d4 | 
[V:4] G,8 | 
[V:1] E4c4- | 
[V:2] z4e4- | 
[V:3] c3Bc2A2- | 
[V:4] A,8 | 
[V:1] c2BAB4 | 
[V:2] e4e4 | 
[V:3] A2^G^F^G4 | 
[V:4] E,8 | 
[V:1] E4z2G2- | 
[V:2] c3Bc4 | 
[V:3] A3GE4 | 
[V:4] z8 | 
[V:1] G2FEF4 | 
[V:2] d8 | 
[V:3] D4D4 | 
[V:4] A,8 | 
[V:1] E4z2A2- | 
[V:2] z8 | 
[V:3] A3GE2F2 | 
[V:4] C8 | 
[V:1] A2GFG4 | 
[V:2] d4e3d | 
[V:3] G4E4 | 
[V:4] B,8 | 
[V:1] z2G4FE | 
[V:2] c2B3Gc2 | 
[V:3] G4z2c2- | 
[V:4] E,8 | 
[V:1] F4E4 | 
[V:2] d4g4 | 
[V:3] c2B2c2e2 | 
[V:4] z4C,4 | 
[V:1] z2A4G2 | 
[V:2] f4e2e2- | 
[V:3] d4B4 | 
[V:4] D,4E,4 | 
[V:1] A4z2E2 | 
[V:2] e2d2e4 | 
[V:3] z2A2B2c2- | 
[V:4] F,4E,2C,2 | 
[V:1] F4G4 | 
[V:2] z2d2e4 | 
[V:3] c2B2c2e2 | 
[V:4] D,4C,4 | 
[V:1] A4G4 | 
[V:2] f4g4 | 
[V:3] d4B2c2- | 
[V:4] z4E,4 | 
[V:1] c4B2e2- | 
[V:2] a4g4 | 
[V:3] c2A2d2c2- | 
[V:4] F,4G,4 | 
[V:1] e2d2c2B2- | 
[V:2] e2f4d2 | 
[V:3] c2d2A2B2 | 
[V:4] A,2F,4G,2 | 
[V:1] BAA4^G2 | 
[V:2] f4e4- | 
[V:3] c2d2B4 | 
[V:4] F,2D,2E,4 | 
[V:1] A8 ||  
[V:2] e8 ||  
[V:3] A8 ||  
[V:4] A,,8 ||  
[V:1]  [K:C] [K:clef=treble][M:4/2]A8- :
[V:2]  [K:C] [K:clef=treble-8][M:2/1]e4f4 | 
[V:3]  [K:C] [K:clef=treble-8][M:2/1]A4d4 | 
[V:4]  [K:C] [K:clef=bass][M:2/1]z4D,4 | 
[V:1] A8 | 
[V:2] e4c4 | 
[V:3] c4A4 | 
[V:4] A,4A,4 | 
[V:1] A8 :
[V:2] z4d2d2 | 
[V:3] F2F2A4 | 
[V:4] D,4D,2D,2 | 
[V:1] A8 | 
[V:2] c2c2d4 | 
[V:3] z2A2A4 | 
[V:4] F,2F,2F,4 | 
[V:1] G8- :
[V:2] e2e2e3e | 
[V:3] B2B2c2c2 | 
[V:4] E,2E,2E,2E,2 | 
[V:1] G8 | 
[V:2] e2e2e4 | 
[V:3] B2A2B4 | 
[V:4] E,2E,2E,4 | 
[V:1] A8- :
[V:2] c4e4 | 
[V:3] A8 | 
[V:4] A,,4z4 | 
[V:1] A8 | 
[V:2] f4e4 | 
[V:3] F4c4- | 
[V:4] D,4A,4- | 
[V:1] E8- :
[V:2] c4z2g2- | 
[V:3] c2BAG2C2 | 
[V:4] A,2G,F,E,2G,2- | 
[V:1] E8 | 
[V:2] gfed^c3B | 
[V:3] z8 | 
[V:4] G,2F,2E,4 | 
[V:1] z8 :
[V:2] d8 | 
[V:3] A4B4 | 
[V:4] D,8 | 
[V:1] G8 | 
[V:2] z8 | 
[V:3] c4B4 | 
[V:4] z4E,4 | 
[V:1] A8 :
[V:2] c4c2c2 | 
[V:3] A4z4 | 
[V:4] F,4A,4 | 
[V:1] B8 | 
[V:2] d4e4- | 
[V:3] z4G4 | 
[V:4] G,4E,4 | 
[V:1] c8 :
[V:2] e4z4 | 
[V:3] A2A2A4 | 
[V:4] z4F,4 | 
[V:1] B4G4 | 
[V:2] z4e4 | 
[V:3] E4c4 | 
[V:4] G,2G,2E,4 | 
[V:1] A8 :
[V:2] f8 | 
[V:3] d8 | 
[V:4] D,8 | 
[V:1] G8 | 
[V:2] e8 | 
[V:3] B8 | 
[V:4] E,8 | 
[V:1] z8 :
[V:2] c4d4 | 
[V:3] A8 | 
[V:4] F,8 | 
[V:1] B8 | 
[V:2] z2e3fg2- | 
[V:3] G4G4 | 
[V:4] E,8 | 
[V:1] c8 :
[V:2] g2a4g2 | 
[V:3] C2F4E2 | 
[V:4] z8 | 
[V:1] d8 | 
[V:2] f3ef4 | 
[V:3] D4z4 | 
[V:4] z8 | 
[V:1] e4c4- :
[V:2] e4f2e2- | 
[V:3] z8 | 
[V:4] z8 | 
[V:1] c4d4 | 
[V:2] e2dcB4 | 
[V:3] z8 | 
[V:4] z8 | 
[V:1] c4A4 :
[V:2] A3Bc2d2- | 
[V:3] z8 | 
[V:4] z8 | 
[V:1] B8 | 
[V:2] dcBA^G4 | 
[V:3] z8 | 
[V:4] z4E,4 | 
[V:1] A8- :
[V:2] A8 | 
[V:3] z4A4 | 
[V:4] F,6G,2 | 
[V:1] A8- | 
[V:2] z8 | 
[V:3] c4d4 | 
[V:4] A,4D,4 | 
[V:1] A8 :
[V:2] z4A4 | 
[V:3] c2A2d4 | 
[V:4] F,4F,4 | 
[V:1] G8 | 
[V:2] B4c4 | 
[V:3] e8 | 
[V:4] E,8 | 
[V:1] F8- :
[V:2] d4c2A2 | 
[V:3] A8 | 
[V:4] D,4F,4 | 
[V:1] F8 | 
[V:2] d6cd | 
[V:3] z8 | 
[V:4] z8 | 
[V:1] E8- :
[V:2] e8 | 
[V:3] c4B2c2- | 
[V:4] A,4G,2A,2- | 
[V:1] E8 | 
[V:2] z4e4 | 
[V:3] cBG2A3B | 
[V:4] A,2B,2C4 | 
[V:1] z8 :
[V:2] f4e2e2 | 
[V:3] c4B4 | 
[V:4] F,4G,2E,2 | 
[V:1] e8 | 
[V:2] e2d2d2^c2 | 
[V:3] c3dA4 | 
[V:4] A,4z4 | 
[V:1] f8 :
[V:2] d8 | 
[V:3] z8 | 
[V:4] D,4D4- | 
[V:1] e8 | 
[V:2] A8 | 
[V:3] z4e4 | 
[V:4] D2CB,C4 | 
[V:1] c8- :
[V:2] z8 | 
[V:3] f2e2e3d | 
[V:4] A,4A,2A,2 | 
[V:1] c8 | 
[V:2] z8 | 
[V:3] c3de4 | 
[V:4] A,4A,4 | 
[V:1] d8- :
[V:2] A4d4- | 
[V:3] d4A4 | 
[V:4] D,4D,4 | 
[V:1] d8 | 
[V:2] d2d2B2B2 | 
[V:3] B2B2d4 | 
[V:4] G,3G,G,2G,2 | 
[V:1] c8- :
[V:2] e4f4 | 
[V:3] z2A2A2A2 | 
[V:4] A,2A,2F,4 | 
[V:1] c8- | 
[V:2] e6f2 | 
[V:3] c6d2 | 
[V:4] A,4G,2F,2 | 
[V:1] c8 :
[V:2] g2a3ge2- | 
[V:3] e2c2A4 | 
[V:4] E,2F,3G,A,2- | 
[V:1] B8 | 
[V:2] e2f2d4 | 
[V:3] z8 | 
[V:4] A,2^G,^F,G,4 | 
[V:1] A8- :
[V:2] c4e4 | 
[V:3] z8 | 
[V:4] A,8 | 
[V:1] A8 | 
[V:2] f4e4- | 
[V:3] z8 | 
[V:4] z4A,4 | 
[V:1] G8 :
[V:2] e2dcd4 | 
[V:3] z8 | 
[V:4] B,8 | 
[V:1] c8- | 
[V:2] e4e4 | 
[V:3] c6B2 | 
[V:4] A,6G,2 | 
[V:1] c8 :
[V:2] f4e4 | 
[V:3] A4c4- | 
[V:4] F,3G,A,4 | 
[V:1] d8 | 
[V:2] g6f2 | 
[V:3] c2BAB4 | 
[V:4] G,8 | 
[V:1] e8- :
[V:2] e3dc2g2- | 
[V:3] c8 | 
[V:4] C,8 | 
[V:1] e8 | 
[V:2] gfed^c3B | 
[V:3] c4A4 | 
[V:4] z8 | 
[V:1] A8- :
[V:2] d4A2c2 | 
[V:3] z8 | 
[V:4] D,4F,4- | 
[V:1] A8 | 
[V:2] d4d4 | 
[V:3] z8 | 
[V:4] F,2D,2D,4 | 
[V:1] c8 :
[V:2] c3de4- | 
[V:3] z8 | 
[V:4] A,8 | 
[V:1] B8 | 
[V:2] e4d4 | 
[V:3] z8 | 
[V:4] E,4G,3B, | 
[V:1] c8 :
[V:2] e8 | 
[V:3] z8 | 
[V:4] A,4A,4 | 
[V:1] d8 | 
[V:2] d8 | 
[V:3] A4B4 | 
[V:4] D,8 | 
[V:1] e8- :
[V:2] z8 | 
[V:3] c6c2 | 
[V:4] A,4A,4 | 
[V:1] e4d2c2 | 
[V:2] z8 | 
[V:3] c8 | 
[V:4] A,6A,2 | 
[V:1] B8- :
[V:2] z8 | 
[V:3] d4e4 | 
[V:4] G,4E,4 | 
[V:1] B8 | 
[V:2] z8 | 
[V:3] d6c2 | 
[V:4] G,8 | 
[V:1] E8- :
[V:2] g4a4 | 
[V:3] B4A4 | 
[V:4] z8 | 
[V:1] E8 | 
[V:2] g4f2e2- | 
[V:3] c8 | 
[V:4] z8 | 
[V:1] F8 :
[V:2] e2dcd4 | 
[V:3] z8 | 
[V:4] z8 | 
[V:1] E8 | 
[V:2] e4e4 | 
[V:3] B4c4 | 
[V:4] E,4A,4 | 
[V:1] A8 :
[V:2] f2f2e2d2- | 
[V:3] d4A2d2 | 
[V:4] D,4D,4 | 
[V:1] G8 | 
[V:2] d2^cB^c4 | 
[V:3] B4G4 | 
[V:4] E,8 | 
[V:1] F8- :
[V:2] d4A4 | 
[V:3] A4z2D2- | 
[V:4] D,8 | 
[V:1] F8 | 
[V:2] d6cd | 
[V:3] DEFGA2B2 | 
[V:4] z4D,4 | 
[V:1] E8- :
[V:2] e4g4 | 
[V:3] c4B4 | 
[V:4] A,4E,3F, | 
[V:1] E8- | 
[V:2] E3FG4 | 
[V:3] z2c4B2 | 
[V:4] G,2A,2E,2G,2 | 
[V:1] E8- :
[V:2] z4z2A2 | 
[V:3] c2B2A4 | 
[V:4] A,2G,2C3B, | 
[V:1] E8 | 
[V:2] c2B2A4 | 
[V:3] z4z2A2 | 
[V:4] A,2G,2z2C2 | 
[V:1] z4G4 :
[V:2] B2d2e4 | 
[V:3] G2F2E4 | 
[V:4] D2A,2B,4 | 
[V:1] A4B4 | 
[V:2] c2d2e4 | 
[V:3] F2A4G2 | 
[V:4] A,2F,2E,4 | 
[V:1] c2c2B2A2 :
[V:2] c4d4 | 
[V:3] A4z2A2 | 
[V:4] z2A,2G,2F,2 | 
[V:1] G4B2B2 | 
[V:2] e4z2B2 | 
[V:3] B2c2d4 | 
[V:4] E,4z2G,2 | 
[V:1] A2A2A4 :
[V:2] c2d3ef2 | 
[V:3] z2A2d2d2 | 
[V:4] F,3E,D,4 | 
[V:1] G8 | 
[V:2] e4z2B2 | 
[V:3] B2c2B2e2- | 
[V:4] z2E,3F,G,2 | 
[V:1] z4E4 :
[V:2] c3de2A2 | 
[V:3] edcBc4 | 
[V:4] A,2E,2z2A,2- | 
[V:1] F2F2G2G2 | 
[V:2] c2d2e4 | 
[V:3] A4B4 | 
[V:4] A,G,F,2E,4 | 
[V:1] A4E4 :
[V:2] c4c3d | 
[V:3] A3GA2c2- | 
[V:4] F,4z2A,2- | 
[V:1] z4G4 | 
[V:2] e2d2e2g2- | 
[V:3] c2A2B2c2 | 
[V:4] A,G,F,2E,4 | 
[V:1] A4G4 :
[V:2] g2^f2g4 | 
[V:3] d4B4 | 
[V:4] D,4z2G,2- | 
[V:1] c6B2 | 
[V:2] e4z4 | 
[V:3] z4A2B2 | 
[V:4] G,2A,4G,2 | 
[V:1] A4G4 :
[V:2] z2A2B4 | 
[V:3] c2d2e4 | 
[V:4] F,4E,4 | 
[V:1] c4d4 | 
[V:2] e4z2d2 | 
[V:3] A4B4 | 
[V:4] z2A,2G,4 | 
[V:1] A8 :
[V:2] f4d4 | 
[V:3] c2d3cBA | 
[V:4] F,8 | 
[V:1] B8 | 
[V:2] e2g3fed | 
[V:3] ^G3A^G3^F/^G/ | 
[V:4] E,8 | 
[V:1] A8 ||  
[V:2] c3de4 ||  
[V:3] A8 ||  
[V:4] A,,8 ||  
[V:1]  [K:C] [K:clef=treble][M:3/1]z12 | 
[V:2]  [K:C] [K:clef=treble-8][M:3/1]z4A4A4 | 
[V:3]  [K:C] [K:clef=treble-8][M:3/1]A12 | 
[V:4]  [K:C] [K:clef=bass][M:3/1]D,4D,4F,4- | 
[V:1] A4A4c4- | 
[V:2] c4d4e4- | 
[V:3] A4A8 | 
[V:4] F,2E,2D,4C,4 | 
[V:1] c4B8 | 
[V:2] e2f2g2f2e2d2 | 
[V:3] G12 | 
[V:4] C,4E,4E,4 | 
[V:1] A8c4 | 
[V:2] c4f4e4- | 
[V:3] A12 | 
[V:4] F,6G,2A,4 | 
[V:1] B6A2G4 | 
[V:2] e4g6f2 | 
[V:3] E8z4 | 
[V:4] G,6F,2E,2D,2 | 
[V:1] z4C4G4 | 
[V:2] e2d2c2d2e4- | 
[V:3] G4A4B4 | 
[V:4] C,4F,4E,4 | 
[V:1] A4B4c4 | 
[V:2] e2f2g4f4 | 
[V:3] c4B2G2A4 | 
[V:4] z12 | 
[V:1] d4e4d4- | 
[V:2] g8g4 | 
[V:3] G4z4B4 | 
[V:4] G,4C,4G,4 | 
[V:1] d2c2B2A2G4 | 
[V:2] f4g4z2e2- | 
[V:3] c4d4e2c2- | 
[V:4] A,4G,4E,4 | 
[V:1] A6^G^FG4 | 
[V:2] e2d2e8 | 
[V:3] c2d2c2A2B4 | 
[V:4] F,4E,8 | 
[V:1] A8z4 | 
[V:2] z4A4c4 | 
[V:3] A12 | 
[V:4] F,8z4 | 
[V:1] z12 | 
[V:2] d4d4c4 | 
[V:3] G4F8- | 
[V:4] z12 | 
[V:1] z12 | 
[V:2] d4e8 | 
[V:3] F4E8 | 
[V:4] A,4B,4C4 | 
[V:1] z4z4A4 | 
[V:2] d4B4c4 | 
[V:3] z4e4f4 | 
[V:4] G,8F,4 | 
[V:1] A4A4G4 | 
[V:2] z4z4G4- | 
[V:3] e4c8- | 
[V:4] A,6G,2E,4- | 
[V:1] G8^F4 | 
[V:2] G4A8 | 
[V:3] c4d8- | 
[V:4] E,4D,8 | 
[V:1] G4E8 | 
[V:2] G4c4A4 | 
[V:3] d4c8 | 
[V:4] G,4A,8 | 
[V:1] A8^G4 | 
[V:2] e8e4 | 
[V:3] c4B8 | 
[V:4] A,4E,8 | 
[V:1] A4c4d4 | 
[V:2] e6d2B4 | 
[V:3] A8G4 | 
[V:4] z12 | 
[V:1] e4A8 | 
[V:2] A4e4f4 | 
[V:3] c8d4 | 
[V:4] z12 | 
[V:1] c4B8 | 
[V:2] e4g6fg | 
[V:3] e12 | 
[V:4] z12 | 
[V:1] A4c4d4 | 
[V:2] a6g2f4 | 
[V:3] A12 | 
[V:4] F,6E,2D,4 | 
[V:1] e4z4A4- | 
[V:2] e4d4f4- | 
[V:3] c4B4c4 | 
[V:4] C,4G,4F,4 | 
[V:1] A2B2c6B2 | 
[V:2] f4c8 | 
[V:3] d4e6dc | 
[V:4] D,4A,4z4 | 
[V:1] G6F2D4 | 
[V:2] e6d2B4- | 
[V:3] B12 | 
[V:4] E,6F,2G,4- | 
[V:1] z4G4A4 | 
[V:2] B4e4d4 | 
[V:3] E8F4 | 
[V:4] G,2A,2B,4A,4 | 
[V:1] G4F4E4 | 
[V:2] e4c8 | 
[V:3] E4A4G4 | 
[V:4] B,4C4C,4 | 
[V:1] F4D6CD | 
[V:2] A12 | 
[V:3] F12 | 
[V:4] D,8z4 | 
[V:1] E8E4 | 
[V:2] B8e4- | 
[V:3] E12- | 
[V:4] G,6A,2B,2C2 | 
[V:1] G8G4 | 
[V:2] e12 | 
[V:3] E8z4 | 
[V:4] B,4C4B,4 | 
[V:1] G4F4D4 | 
[V:2] e4c4B4 | 
[V:3] G4A4B4 | 
[V:4] E,4F,4G,4 | 
[V:1] E4D2D4^C2 | 
[V:2] G4z4z4 | 
[V:3] c4B2A2G4 | 
[V:4] C,4G,2F,2E,4 | 
[V:1] D8D4 | 
[V:2] d4f8 | 
[V:3] B4A8- | 
[V:4] D,8D,4 | 
[V:1] A4_B6A2 | 
[V:2] d4g8 | 
[V:3] A4G8 | 
[V:4] D,4D8 | 
[V:1] A4G4A4 | 
[V:2] e8c4- | 
[V:3] z4E4F4 | 
[V:4] C4B,4A,4 | 
[V:1] G4F4G4 | 
[V:2] c4d4B4 | 
[V:3] G4A4E4 | 
[V:4] E,4D,4E,4 | 
[V:1] A4E4c4- | 
[V:2] z4c4e2f2 | 
[V:3] z4G4A4 | 
[V:4] D,4C,6D,2 | 
[V:1] c2B2A4G4 | 
[V:2] g4f4g4 | 
[V:3] G4c6B2 | 
[V:4] E,4F,4E,4 | 
[V:1] c4B4A4- | 
[V:2] f4d4f4- | 
[V:3] A4G4c4 | 
[V:4] F,4G,4F,4 | 
[V:1] A2B2c2d2c4 | 
[V:2] f4f6e2 | 
[V:3] d4A8- | 
[V:4] D,8F,4- | 
[V:1] A8^G4 | 
[V:2] c2d2e8 | 
[V:3] A4B8 | 
[V:4] F,4E,8 | 
[V:1] A12 |]  
[V:2] e12 |]  
[V:3] A12 |]  
[V:4] A,,12 |]  



